X:1
T: Ship o' Grace
C:Nan Main
R:Strathspey
Q: 128
K:A
M:4/4
L:1/16
|:d2|cA3 A3G F3E D3C|B,B3 B3A G3A B3c|((3d2e2f2) ((3f2e2d2) ((3c2d2e2) ((3A2B2c2) |B3A G3F Ee3 e3d|
ce3 f3g aA3 A4|^DF3 G3A BE3 E3=D|C3E A3G F3A d3f|((3e2d2B2) ((3E2F2G2) A2A,2 A,4|
A3B =c3d eE3 e3d|((3=c2d2e2) ((3A2B2c2) BE3 E3E|=FA3 d3F EA3 =c3E|((3^D2F2=c2) ((3B2A2F2) GE3 E3G|
((3A2B2c2) ((3e2f2g2) a4 a3a|f3d B3A ((3G2A2B2) E3D|CE3 A3G F3B d3f|((3e2d2B2) ((3E2F2G2) A2A,2 A,2:|
